X:1
L:1/8
Q:1/4=120
M:6/8
K:Gmin
""^Spirited"" (A/G/) | FDD FDC | DGG G2 A | B3 GBd |{d} cAG F2 || (3(c/d/=e/) | fFF AFF | 
 cAG (F>GA/c/) | d2{ed} ^c (d>cA/d/) | =cA^F G2 | (3(d/=e/^f/) | g^fg G2 (B/d/) | g^fg (G>cd/=e/) | 
 f=ef F2 (A/c/) | fcA F2 || (G/A/) |{c} BAB B,2 =B |{d} c=Bc A2 (B/c/) | d2{ed} ^c (d>cA/d/) | 
 =cA^F G2 |]
